!!!OTL: Der Koenigssohn
!!!ARE: Europa, Mitteleuropa, Deutschland
!!!SCT: A0049
!!!YEM: Copyright 1995, estate of Helmut Schaffrath.
**kern
*ICvox
*Ivox
*M4/2
*k[b-]
*F:
{2f
=1
2f
2g
2a
2cc
=2
4dd
4b-
4a
4b-
2g
2g
=3
0f}
=4
{2r
2f
2cc
2cc
=5
1dd
2cc
[2cc
=6
2cc]
2bn
1cc}
=7
{1cc
2cc
2cc
=8
2.a
4cc
2.b-
4a
=9
1g
2r}
{2cc
=10
2b-
2g
2a
2f
=11
2.a
4b-
2cc
2b-
=12
4b-
4a
4g
4f
1g
=13
1.f}
==
!!!AGN: Romanze, Ballade, Lied
!! Melodie bei Forster V. 1556 No. 11.
!!!ONB: ESAC (Essen Associative Code) Database: ALTDEU
!!!AMT: simple quadruple
!!!AIN: vox
!!!EED: Helmut Schaffrath
!!!EEV: 1.0
*-
